X: 28595
T: Murty Rabbett's
R: polka
M: 2/4
K: Gmajor
|:bb/a/ g2d2|ed^cd|a-a/g f2d2|e/d/^c/d/ e/d/^c/d/|
bb/a/ g2d2|ed^cd|a-a/gf2d2|e2f2|g2z2:|
|:d/e/d g/f/g|e/f/e a/g/a|d/e/d a/g/a|d/e/d b/a/b|
d/e/d g/f/g|e/f/e ag|fdef|g2b2|g2z2:|

